images/icons/coin-des-tab.svg

<svg width="28" height="28" viewBox="0 0 28 28" fill="none" xmlns="http://www.w3.org/2000/svg">
<g id="Group">
<path id="Vector" d="M13.9998 0.666748C6.6665 0.666748 0.666504 6.66675 0.666504 14.0001C0.666504 21.3334 6.6665 27.3334 13.9998 27.3334C21.3332 27.3334 27.3332 21.3334 27.3332 14.0001C27.3332 6.66675 21.3332 0.666748 13.9998 0.666748ZM13.9998 24.6667C8.13317 24.6667 3.33317 19.8667 3.33317 14.0001C3.33317 8.13341 8.13317 3.33341 13.9998 3.33341C19.8665 3.33341 24.6665 8.13341 24.6665 14.0001C24.6665 19.8667 19.8665 24.6667 13.9998 24.6667Z" fill="#FD9222"/>
<path id="Vector_2" d="M15.7332 12.6667H12.2666C11.5999 12.6667 11.0666 12.1333 11.0666 11.4667C11.0666 10.8 11.5999 10.2667 12.2666 10.2667H17.1999C17.9999 10.2667 18.5332 9.73332 18.5332 8.93332C18.5332 8.13332 17.9999 7.59998 17.1999 7.59998H15.3332V6.39998C15.3332 5.59998 14.7999 5.06665 13.9999 5.06665C13.1999 5.06665 12.6666 5.59998 12.6666 6.39998V7.59998H12.2666C10.1332 7.59998 8.3999 9.33332 8.3999 11.4667C8.3999 13.6 10.1332 15.3333 12.2666 15.3333H15.5999C16.2666 15.3333 16.7999 15.8666 16.7999 16.5333C16.7999 17.2 16.2666 17.7333 15.5999 17.7333H10.6666C9.86657 17.7333 9.33324 18.2667 9.33324 19.0667C9.33324 19.8667 9.86657 20.4 10.6666 20.4H12.6666V21.6C12.6666 22.4 13.1999 22.9333 13.9999 22.9333C14.7999 22.9333 15.3332 22.4 15.3332 21.6V20.4H15.7332C17.8666 20.4 19.5999 18.6667 19.5999 16.5333C19.5999 14.4 17.8666 12.6667 15.7332 12.6667Z" fill="#FD9222"/>
</g>
</svg>

<svg xmlns="http://www.w3.org/2000/svg" width="28" height="28" fill="none"><g fill="#FD9222"><path d="M14 .667C6.667.667.667 6.667.667 14s6 13.333 13.333 13.333 13.333-6 13.333-13.333S21.333.667 14 .667Zm0 24c-5.867 0-10.667-4.8-10.667-10.667S8.133 3.333 14 3.333c5.866 0 10.666 4.8 10.666 10.667S19.866 24.667 14 24.667Z"/><path d="M15.733 12.667h-3.466c-.667 0-1.2-.534-1.2-1.2 0-.667.533-1.2 1.2-1.2H17.2c.8 0 1.333-.534 1.333-1.334S18 7.6 17.2 7.6h-1.867V6.4c0-.8-.533-1.333-1.333-1.333-.8 0-1.333.533-1.333 1.333v1.2h-.4A3.87 3.87 0 0 0 8.4 11.467a3.87 3.87 0 0 0 3.867 3.866H15.6c.667 0 1.2.534 1.2 1.2 0 .667-.533 1.2-1.2 1.2h-4.933c-.8 0-1.334.534-1.334 1.334s.534 1.333 1.334 1.333h2v1.2c0 .8.533 1.333 1.333 1.333.8 0 1.333-.533 1.333-1.333v-1.2h.4a3.87 3.87 0 0 0 3.867-3.867 3.87 3.87 0 0 0-3.867-3.866Z"/></g></svg>
